static/images/axi.svg

<svg width="63" height="25" viewBox="0 0 63 25" fill="none" xmlns="http://www.w3.org/2000/svg">
  <path d="M62.1925 0.415416V24.2361H54.916V0.411865L62.1925 0.415416Z" fill="#7B36FE"/>
  <path d="M17.911 0.484615V3.28935C16.7618 1.35444 13.8888 0 10.9666 0C4.83754 0.00177515 0 5.46746 0 12.3426C0 19.2178 4.83754 24.7278 10.9666 24.7278C13.9363 24.7278 16.7653 23.3734 17.911 21.4385V24.2361H25.1875V0.484615H17.911ZM12.4796 18.6675C11.2447 18.6675 10.0375 18.2975 9.01079 17.6044C7.98404 16.9113 7.18383 15.9261 6.71134 14.7736C6.23885 13.621 6.11531 12.3528 6.35635 11.1292C6.5974 9.90574 7.19219 8.78193 8.0655 7.89993C8.93882 7.01794 10.0514 6.41739 11.2626 6.17423C12.4738 5.93107 13.7292 6.05622 14.87 6.53386C16.0108 7.01151 16.9857 7.82018 17.6715 8.85761C18.3573 9.89504 18.7232 11.1146 18.7228 12.3621C18.7228 13.1903 18.5613 14.0104 18.2476 14.7755C17.9338 15.5406 17.4739 16.2358 16.8941 16.8213C16.3144 17.4068 15.6261 17.8712 14.8686 18.188C14.1112 18.5048 13.2994 18.6677 12.4796 18.6675Z" fill="#7B36FE"/>
  <path d="M40.0218 6.53076L35.9258 12.2538L40.0218 18.0497L44.1178 12.2538L40.0218 6.53076Z" fill="#7B36FE"/>
  <path opacity="0.6" d="M44.1175 12.2538L52.4272 0.420654H44.3951L40.0215 6.53071L44.1175 12.2538Z" fill="#7B36FE"/>
  <path opacity="0.8" d="M35.9259 12.2538L40.0219 6.53071L35.6483 0.420654H27.6162L35.9259 12.2538Z" fill="#7B36FE"/>
  <path opacity="0.6" d="M35.9259 12.2539L27.6162 24.2344H35.6483L40.0219 18.0498L35.9259 12.2539Z" fill="#7B36FE"/>
  <path opacity="0.8" d="M44.1175 12.2539L52.4272 24.2344H44.3951L40.0215 18.0498L44.1175 12.2539Z" fill="#7B36FE"/>
</svg>

<svg fill="none" xmlns="http://www.w3.org/2000/svg" viewBox="0 0 63 25"><path d="M62.193.415v23.821h-7.277V.412l7.277.003zM17.911.485v2.804C16.761 1.354 13.889 0 10.967 0 4.837.002 0 5.467 0 12.343c0 6.875 4.838 12.385 10.967 12.385 2.97 0 5.798-1.355 6.944-3.29v2.798h7.276V.485h-7.276zM12.48 18.667a6.199 6.199 0 01-3.47-1.063 6.294 6.294 0 01-2.299-2.83 6.367 6.367 0 01-.355-3.645 6.327 6.327 0 011.71-3.23 6.224 6.224 0 013.197-1.725 6.185 6.185 0 013.607.36 6.257 6.257 0 012.802 2.324 6.363 6.363 0 01.576 5.918 6.31 6.31 0 01-1.354 2.045 6.237 6.237 0 01-2.025 1.367c-.758.317-1.57.48-2.39.48zM40.022 6.53l-4.096 5.724 4.096 5.796 4.096-5.796-4.096-5.723z" fill="#7B36FE"/><path opacity=".6" d="M44.117 12.254L52.428.42h-8.032l-4.373 6.11 4.096 5.723z" fill="#7B36FE"/><path opacity=".8" d="M35.926 12.254l4.096-5.723L35.648.42h-8.032l8.31 11.833z" fill="#7B36FE"/><path opacity=".6" d="M35.926 12.254l-8.31 11.98h8.032l4.374-6.184-4.096-5.796z" fill="#7B36FE"/><path opacity=".8" d="M44.117 12.254l8.31 11.98h-8.032l-4.373-6.184 4.096-5.796z" fill="#7B36FE"/></svg>
